X: 184
T: SLIDE: Kings of Kerry
C: C: Mike Scott; S: Jonas Sarajarvi; Séamus Begley
C: Set Leaders: Mars, Anton
Z: Mars Agliullin ed., Anton Zille ed., Oleg Naumov arr.; Mars at The Session
N: https://thesession.org/members/26966/sets/94265
R: Slide
M: 12/8
L: 1/8
Q: 3/8=130
K: Amaj
"A"c3 cBA F2A E2A|"A"F2A E2c "E"B3 BAB|
"A"c3 cBA F2A E2f|1 "D"ecA "E"BcB "A"A3 A2B:|2 "D"ecA "E"BcB "A"A3 Ace||
"F#m"a3 afe "D"f2a e2A|"A"c3 cBA "E"B3 Bce|
"F#m"a3 afe "D"f2a e2f|"D"ecA "E"BcB "A"A3 Ace|
"F#m"a3 afe "D"f2a e2A|"A"c3 cBA "E"B3 BAB|
"F#m"c3 cBA "D"F2A E2f|"E"ecA BcB A3 A3||

